!!!OTL: Quadrille (206), S. 449f
!!!id: T0390
**kern
*clefG2
*k[b-]
*F:
{8cc
=1
8ff
8cc
8a
8cc
=2
8f
8f}
8r
=3
{8a
=4
8a
8cc
8g
8a
=5
4f}
8r
=6
{8cc
=7
8ff
8cc
8a
8cc
=8
8f
8f}
8r
=9
{8a
=10
8a
8cc
8g
8a
=11
4f}
8r
=12
{8cc
=13
8cc
8cc
8a
8cc
=14
8cc
8cc
8a}
=15
{8dd
=16
8dd
8dd
8dd
8dd
=17
4ee}
8r
=18
{8cc
=19
8cc
8cc
8a
8cc
=20
8cc
8cc
8a}
=21
{8cc
=22
8cc
8ff
8ee
8dd
=23
4cc}
4r
=24
{8f
8f
8f
8a
=25
8g
8g
8g
8b-}
=26
{8a
8cc
8b-
8dd
=27
8dd
8cc
4cc}
=28
{8ff
8ff
8ee
8b-}
=29
{8dd
8dd
8cc
8a}
=30
{8g
8a
8b-
8g
=31
8g
8f
4f}
==
*-
!!!minrhy: 8
!!!meters: 2/4 ]  ZZ[13
!!!cut: Quadrille (206), S. 449f
!!!reg: Luxemburg
!!!trd: Singendes Volk, Esch-Alzette, 1937 posth.
!!!rhy1: X  XXXX  XX0
!!!rhy2: X  XXXX  X_0
!!!key: T0390  08  F 2/4 ]  ZZ[13
!!!mod: HEPTATONIK IONISCH]  AMBITUS[8
!!!kad: 1111373545431
!!!akz: +11_31_+11_31_55_67_55_55_12_36_+1_6_22_
!!!fot: 'a__b__a__b__c__d__c__e__ds'f__g__h__i__
!!!for: 'a__aw_a__aw_a__aw_a__aw_a__aw_aw_aw_aw_
!!!fok: '^d_\__^d_\__\__/__\__^__/__/__\__\__^d_
!! PHRAS[GEMISCHTTAKTIG]
!!!fkt: Tanz-, Spiellied
!!!bem: Hesperingen, fff Bach-Oberweis, 15.4.1934
!! THILL; Mathias
!! PR[41] 2K[0] 2G[5] 3K[9] 3G[7] 4A[5] 4Ü[0] 5A[2] 6K[0] 6G[0]
!! 7K[0] 7G[0] 8A[0] MEHR[0] SI[27] ABS[44] SR[5] SP[23]
!! ST[8] 2k[2] 2g[14] 3k[5] 3g[5] 4d[5] 4ü[0] 5d[0] 6k[2] 6g[0]
!! 7k[0] 7g[0] 8d[0] mehr[0] si[32] dm[-5] sr[16] sp[16]
!! 1F[66] 2F[32] 3F[0] 4F[0] LF[0] 2P[2] 3P[0] 4P[0] TRI[0] DF[3] AB[47]
!! TF[0] U3K[0] U3[0] U4[0] U4Ü[0] U5[2] U6K[0] U6[0] U7K[0] U7[0]
!! N1[11] N2K[0] N2[7] N3K[0] N3[18] N4[2] N4Ü[0] N5[49] N6K[0] N6[7]
!!!n7k: 0] N7[2] O1[2] O2K[0] O2[0] O3K[0] O3[0] HÖ[0
